2 Export/Icons/Rounded/Payment.svg

<svg xmlns="http://www.w3.org/2000/svg" xmlns:xlink="http://www.w3.org/1999/xlink" width="24" height="24" viewBox="0 0 24 24">
  <defs>
    <path id="payment-a" d="M20 4H4c-1.11 0-1.99.89-1.99 2L2 18c0 1.11.89 2 2 2h16c1.11 0 2-.89 2-2V6c0-1.11-.89-2-2-2zm-1 14H5c-.55 0-1-.45-1-1v-5h16v5c0 .55-.45 1-1 1zm1-10H4V7c0-.55.45-1 1-1h14c.55 0 1 .45 1 1v1z"/>
  </defs>
  <g fill="none" fill-rule="evenodd">
    <polygon points="0 0 24 0 24 24 0 24"/>
    <mask id="payment-b" fill="#fff">
      <use xlink:href="#payment-a"/>
    </mask>
    <use fill="#000" xlink:href="#payment-a"/>
    <g fill="#000" mask="url(#payment-b)">
      <rect width="24" height="24"/>
    </g>
  </g>
</svg>

<svg xmlns="http://www.w3.org/2000/svg" xmlns:xlink="http://www.w3.org/1999/xlink" width="24" height="24" viewBox="0 0 24 24">
  <defs>
    <path id="payment-a" d="M20,4 L4,4 C2.89,4 2.01,4.89 2.01,6 L2,18 C2,19.11 2.89,20 4,20 L20,20 C21.11,20 22,19.11 22,18 L22,6 C22,4.89 21.11,4 20,4 Z M19,18 L5,18 C4.45,18 4,17.55 4,17 L4,12 L20,12 L20,17 C20,17.55 19.55,18 19,18 Z M20,8 L4,8 L4,7 C4,6.45 4.45,6 5,6 L19,6 C19.55,6 20,6.45 20,7 L20,8 Z"/>
  </defs>
  <g fill="none" fill-rule="evenodd">
    <polygon points="0 0 24 0 24 24 0 24"/>
    <mask id="payment-b" fill="#fff">
      <use xlink:href="#payment-a"/>
    </mask>
    <use fill="#000" xlink:href="#payment-a"/>
    <g fill="#000" mask="url(#payment-b)">
      <rect width="24" height="24"/>
    </g>
  </g>
</svg>
